packages/graphiql-react/src/icons/deprecated-enum-value.svg

<svg
  height="1em"
  viewBox="0 0 12 12"
  fill="none"
  xmlns="http://www.w3.org/2000/svg"
>
  <path d="M4 8L8 4" stroke="currentColor" stroke-width="1.2" />
  <path d="M4 4L8 8" stroke="currentColor" stroke-width="1.2" />
  <path
    fill-rule="evenodd"
    clip-rule="evenodd"
    d="M8.5 1.2H9C9.99411 1.2 10.8 2.00589 10.8 3V9C10.8 9.99411 9.99411 10.8 9 10.8H8.5V12H9C10.6569 12 12 10.6569 12 9V3C12 1.34315 10.6569 0 9 0H8.5V1.2ZM3.5 1.2V0H3C1.34315 0 0 1.34315 0 3V9C0 10.6569 1.34315 12 3 12H3.5V10.8H3C2.00589 10.8 1.2 9.99411 1.2 9V3C1.2 2.00589 2.00589 1.2 3 1.2H3.5Z"
    fill="currentColor"
  />
</svg>

<svg xmlns="http://www.w3.org/2000/svg" height="1em" fill="none" viewBox="0 0 12 12">
  <path stroke="currentColor" stroke-width="1.2" d="m4 8 4-4M4 4l4 4"/>
  <path fill="currentColor" fill-rule="evenodd" d="M8.5 1.2H9A1.8 1.8 0 0 1 10.8 3v6A1.8 1.8 0 0 1 9 10.8h-.5V12H9a3 3 0 0 0 3-3V3a3 3 0 0 0-3-3h-.5zm-5 0V0H3a3 3 0 0 0-3 3v6a3 3 0 0 0 3 3h.5v-1.2H3A1.8 1.8 0 0 1 1.2 9V3A1.8 1.8 0 0 1 3 1.2z" clip-rule="evenodd"/>
</svg>
